public/images/logo/mapbox.svg

<svg width="76" height="18" viewBox="0 0 76 18" fill="none" xmlns="http://www.w3.org/2000/svg">
<g clip-path="url(#clip0)">
<path d="M56.4864 5.20373C55.5459 5.20373 54.6434 5.59095 53.9879 6.27095V2.67262C53.9879 2.55929 53.8929 2.46484 53.7789 2.46484H52.5059C52.3919 2.46484 52.2969 2.55929 52.2969 2.67262V12.4004C52.2969 12.5137 52.3919 12.6082 52.5059 12.6082H53.7789C53.8929 12.6082 53.9879 12.5137 53.9879 12.4004V11.7298C54.6434 12.4098 55.5364 12.7971 56.4864 12.7971C58.4719 12.7971 60.0774 11.0971 60.0774 9.0004C60.0774 6.90373 58.4719 5.20373 56.4864 5.20373ZM56.1919 11.2765C54.9854 11.2765 54.0069 10.2754 53.9974 9.02873V8.97207C54.0164 7.7254 54.9854 6.72429 56.1919 6.72429C57.4079 6.72429 58.3864 7.74429 58.3864 9.0004C58.3864 10.2565 57.3984 11.2765 56.1919 11.2765Z" fill="#43436B"/>
<path d="M64.7605 5.20312C62.6135 5.20312 60.875 6.90312 60.875 8.99979C60.875 11.0965 62.6135 12.7965 64.7605 12.7965C66.9075 12.7965 68.646 11.0965 68.646 8.99979C68.646 6.90312 66.9075 5.20312 64.7605 5.20312ZM64.751 11.2759C63.535 11.2759 62.5565 10.2559 62.5565 8.99979C62.5565 7.74368 63.5445 6.72368 64.751 6.72368C65.9575 6.72368 66.9455 7.74368 66.9455 8.99979C66.9455 10.2559 65.9575 11.2759 64.751 11.2759Z" fill="#43436B"/>
<path d="M41.0012 5.39201H39.7282C39.6142 5.39201 39.5192 5.48646 39.5192 5.59979V6.27035C38.8637 5.59035 37.9707 5.20312 37.0207 5.20312C35.0352 5.20312 33.4297 6.90312 33.4297 8.99979C33.4297 11.0965 35.0352 12.7965 37.0207 12.7965C37.9612 12.7965 38.8637 12.4092 39.5192 11.7292V12.3998C39.5192 12.5131 39.6142 12.6076 39.7282 12.6076H41.0012C41.1152 12.6076 41.2102 12.5131 41.2102 12.3998V5.59979C41.2102 5.48646 41.1152 5.39201 41.0012 5.39201ZM37.3152 11.2759C36.0992 11.2759 35.1207 10.2559 35.1207 8.99979C35.1207 7.74368 36.1087 6.72368 37.3152 6.72368C38.5217 6.72368 39.5002 7.72479 39.5097 8.97146V9.02812C39.5002 10.2748 38.5217 11.2759 37.3152 11.2759Z" fill="#43436B"/>
<path d="M47.3565 5.20312C46.416 5.20312 45.5135 5.59035 44.858 6.27035V5.59979C44.858 5.48646 44.763 5.39201 44.649 5.39201H43.376C43.262 5.39201 43.167 5.48646 43.167 5.59979V15.3276C43.167 15.4409 43.262 15.5353 43.376 15.5353H44.649C44.763 15.5353 44.858 15.4409 44.858 15.3276V11.7292C45.5135 12.4092 46.4065 12.7965 47.3565 12.7965C49.342 12.7965 50.9475 11.0965 50.9475 8.99979C50.9475 6.90312 49.342 5.20312 47.3565 5.20312ZM47.062 11.2759C45.8555 11.2759 44.877 10.2748 44.8675 9.02812V8.97146C44.8865 7.72479 45.8555 6.72368 47.062 6.72368C48.278 6.72368 49.2565 7.74368 49.2565 8.99979C49.2565 10.2559 48.278 11.2759 47.062 11.2759Z" fill="#43436B"/>
<path d="M29.6202 5.20325C28.6702 5.21269 27.8057 5.76047 27.3972 6.61991C26.9317 5.74158 26.0007 5.1938 25.0032 5.20325C24.2242 5.20325 23.4927 5.58102 23.0367 6.20436V5.59991C23.0367 5.48658 22.9417 5.39213 22.8277 5.39213H21.5547C21.4407 5.39213 21.3457 5.48658 21.3457 5.59991V12.3999C21.3457 12.5132 21.4407 12.6077 21.5547 12.6077H22.8277C22.9417 12.6077 23.0367 12.5132 23.0367 12.3999V8.32935C23.0842 7.42269 23.7207 6.69547 24.4997 6.69547C25.3072 6.69547 25.9817 7.36602 25.9817 8.24435V12.3999C25.9817 12.5132 26.0767 12.6077 26.1907 12.6077H27.4732C27.5872 12.6077 27.6822 12.5132 27.6822 12.3999L27.6727 8.1688C27.7867 7.33769 28.3852 6.69547 29.1167 6.69547C29.9242 6.69547 30.5987 7.36602 30.5987 8.24435V12.3999C30.5987 12.5132 30.6937 12.6077 30.8077 12.6077H32.0902C32.2042 12.6077 32.2992 12.5132 32.2992 12.3999L32.2897 7.72491C32.2897 6.32713 31.0927 5.20325 29.6202 5.20325Z" fill="#43436B"/>
<path d="M75.4956 12.315L73.2916 8.98115L75.4766 5.67559C75.5336 5.59059 75.5051 5.46781 75.4196 5.41115C75.3911 5.39226 75.3531 5.38281 75.3151 5.38281H73.8426C73.7286 5.38281 73.6241 5.43948 73.5671 5.53392L72.2846 7.67781L71.0021 5.54337C70.9451 5.44892 70.8406 5.39226 70.7266 5.39226H69.2541C69.1496 5.39226 69.0641 5.47726 69.0641 5.58115C69.0641 5.61892 69.0736 5.6567 69.0926 5.68503L71.2776 8.99059L69.0736 12.3245C69.0166 12.4095 69.0451 12.5323 69.1306 12.5889C69.1591 12.6078 69.1971 12.6173 69.2351 12.6173H70.7076C70.8216 12.6173 70.9261 12.5606 70.9831 12.4661L72.2941 10.2939L73.6051 12.4661C73.6621 12.5606 73.7666 12.6173 73.8806 12.6173H75.3341C75.4386 12.6173 75.5241 12.5323 75.5241 12.4284C75.5241 12.3906 75.5146 12.3528 75.4956 12.315Z" fill="#43436B"/>
<path d="M8.92011 0.605469C4.25561 0.605469 0.474609 4.36436 0.474609 9.00158C0.474609 13.6388 4.25561 17.3977 8.92011 17.3977C13.5846 17.3977 17.3656 13.6388 17.3656 9.00158C17.3656 4.36436 13.5846 0.605469 8.92011 0.605469ZM12.9291 11.0605C10.0411 13.9316 4.88261 13.0155 4.88261 13.0155C4.88261 13.0155 3.95161 7.89658 6.84911 5.01602C8.45461 3.41991 11.1146 3.48602 12.7961 5.14825C14.4776 6.81047 14.5346 9.46436 12.9291 11.0605Z" fill="#43436B"/>
<path d="M9.8893 5.52734L9.06281 7.2179L7.3623 8.03957L9.06281 8.86123L9.8893 10.5518L10.7158 8.86123L12.4163 8.03957L10.7158 7.2179L9.8893 5.52734Z" fill="#43436B"/>
</g>
<defs>
<clipPath id="clip0">
<rect width="76" height="17" fill="white" transform="translate(0 0.5)"/>
</clipPath>
</defs>
</svg>

<svg width="76" height="18" fill="none" xmlns="http://www.w3.org/2000/svg"><g clip-path="url(#clip0)" fill="#43436B"><path d="M56.486 5.204c-.94 0-1.843.387-2.498 1.067V2.673a.21.21 0 00-.21-.208h-1.272a.21.21 0 00-.21.208V12.4a.21.21 0 00.21.208h1.273a.21.21 0 00.209-.208v-.67a3.46 3.46 0 002.498 1.067c1.986 0 3.591-1.7 3.591-3.797 0-2.096-1.605-3.796-3.59-3.796zm-.294 6.073c-1.207 0-2.185-1.002-2.195-2.248v-.057c.02-1.247.988-2.248 2.195-2.248 1.216 0 2.194 1.02 2.194 2.276 0 1.257-.988 2.277-2.194 2.277zM64.76 5.203c-2.147 0-3.885 1.7-3.885 3.797 0 2.097 1.739 3.796 3.885 3.796 2.147 0 3.886-1.7 3.886-3.796 0-2.097-1.739-3.797-3.886-3.797zm-.009 6.073c-1.216 0-2.195-1.02-2.195-2.276 0-1.256.989-2.276 2.195-2.276S66.945 7.744 66.945 9c0 1.256-.987 2.276-2.194 2.276zM41.001 5.392h-1.273a.21.21 0 00-.209.208v.67a3.46 3.46 0 00-2.498-1.067c-1.986 0-3.591 1.7-3.591 3.797 0 2.097 1.605 3.796 3.59 3.796.941 0 1.844-.387 2.5-1.067v.67a.21.21 0 00.208.209h1.273a.21.21 0 00.21-.208V5.6a.21.21 0 00-.21-.208zm-3.686 5.884c-1.216 0-2.194-1.02-2.194-2.276 0-1.256.988-2.276 2.194-2.276 1.207 0 2.185 1 2.195 2.247v.057c-.01 1.247-.988 2.248-2.195 2.248zM47.356 5.203c-.94 0-1.843.387-2.498 1.067V5.6a.21.21 0 00-.209-.208h-1.273a.21.21 0 00-.209.208v9.728a.21.21 0 00.209.207h1.273a.21.21 0 00.209-.207v-3.599a3.46 3.46 0 002.498 1.068c1.986 0 3.591-1.7 3.591-3.797 0-2.097-1.605-3.797-3.59-3.797zm-.294 6.073c-1.206 0-2.185-1.001-2.194-2.248v-.057c.018-1.246.987-2.247 2.194-2.247 1.216 0 2.195 1.02 2.195 2.276 0 1.256-.979 2.276-2.195 2.276zM29.62 5.203c-.95.01-1.814.557-2.223 1.417a2.686 2.686 0 00-2.394-1.417c-.779 0-1.51.378-1.966 1.001V5.6a.21.21 0 00-.21-.208h-1.272a.21.21 0 00-.21.208v6.8a.21.21 0 00.21.208h1.273a.21.21 0 00.209-.208V8.33c.047-.907.684-1.635 1.463-1.635.807 0 1.482.671 1.482 1.55V12.4a.21.21 0 00.209.208h1.282a.21.21 0 00.21-.208l-.01-4.231c.114-.831.712-1.474 1.444-1.474.807 0 1.482.671 1.482 1.55V12.4a.21.21 0 00.209.208h1.282a.21.21 0 00.21-.208l-.01-4.675c0-1.398-1.197-2.522-2.67-2.522zM75.496 12.315l-2.204-3.334 2.185-3.305a.195.195 0 00-.057-.265.192.192 0 00-.105-.028h-1.472a.32.32 0 00-.276.15l-1.282 2.145-1.283-2.135a.32.32 0 00-.275-.15h-1.473a.19.19 0 00-.19.188c0 .038.01.076.029.104l2.185 3.306-2.204 3.334a.195.195 0 00.057.264.192.192 0 00.104.028h1.473a.32.32 0 00.275-.15l1.311-2.173 1.311 2.172a.32.32 0 00.276.151h1.453a.19.19 0 00.19-.189.25.25 0 00-.028-.113zM8.92.605C4.256.605.475 4.365.475 9.002c0 4.637 3.78 8.396 8.445 8.396 4.665 0 8.446-3.76 8.446-8.396 0-4.638-3.781-8.397-8.446-8.397zm4.01 10.456c-2.889 2.87-8.047 1.954-8.047 1.954s-.931-5.118 1.966-7.999c1.606-1.596 4.266-1.53 5.947.132 1.682 1.662 1.739 4.316.133 5.912z"/><path d="M9.89 5.527l-.827 1.69-1.7.823 1.7.821.826 1.69.827-1.69 1.7-.821-1.7-.822-.827-1.69z"/></g><defs><clipPath id="clip0"><path fill="#fff" transform="translate(0 .5)" d="M0 0h76v17H0z"/></clipPath></defs></svg>
